img/xemu.svg

<svg xmlns="http://www.w3.org/2000/svg" width="483" height="483" style="shape-rendering:geometricPrecision;text-rendering:geometricPrecision;image-rendering:optimizeQuality;fill-rule:evenodd;clip-rule:evenodd"><path fill="#7bd484" d="M219.5-.5h43q143.583 18.9 202.5 151 15.993 41.219 17.5 85v11q-9.456 145.155-138 212.5-46.343 21.462-97 23.5h-14Q91.575 473.186 24 348.5q-19.754-41.037-24.5-86v-44Q17.275 79.494 143.5 19q36.748-15.435 76-19.5" style="opacity:.801"/><path fill="#103713" d="M226.5 1.5Q367.864-.705 445 116.5q68.997 123.94 0 248Q379.18 466.698 257.5 479 125.584 483.907 46 379.5q-74.693-112.752-23-238Q86.066 15.57 226.5 1.5" style="opacity:1"/><path fill="#7dd786" d="M221.5 19.5q146.914-4.621 217.5 123 51.668 115.053-15 222-75.366 104.048-204.5 96.5Q93.053 444.183 38 329.5q-43.805-108.138 16-208 60.334-89.016 167.5-102" style="opacity:1"/><path fill="#0f3612" d="M222.5 28.5q132.662-4.558 202.5 107 50.519 95.086 8 194Q381.69 432.776 267.5 451 144.825 461.802 69 365.5q-63.018-93.137-27-200Q81.459 69.038 180.5 37a566 566 0 0 1 42-8.5" style="opacity:1"/><path fill="#7fd988" d="M238.5 244.5h-48q-.356 1.937 1 3 1.948 12.203 14 15.5 13.809 1.645 27-2.5 1.035 5.985.5 12-21.64 8.748-42.5-1.5-11.514-8.259-13.5-22.5-5.33-29.592 21.5-42.5 19.247-5.251 33.5 8.5 7.91 13.944 6.5 30m21-40q10.88-1.082 20.5 4 21.697-11.461 31 11 .75 27.995.5 56h-13q.25-27.005-.5-54-4.013-7.596-11-3a481 481 0 0 0-.5 31h-13q.25-14.508-.5-29-.75-2.75-3.5-3.5-3.899-1.153-7.5.5-.75 28.995-.5 58h-13v-68a109 109 0 0 0 11-3" style="opacity:1"/><path fill="#488a4e" d="M152.5 206.5q7.272-1.971 15 0-.186.91-1 1-6.705-1.479-14-1" style="opacity:1"/><path fill="#7dd786" d="M152.5 206.5q7.295-.479 14 1a1022 1022 0 0 1-23 31.5q14.548 15.879 25 34.5-7.208 1.481-15 1a168 168 0 0 0-17-25 116 116 0 0 0-19 25q-7.5 2-15 0a215.7 215.7 0 0 1 25-35 918 918 0 0 1-24-33q8-2 16 0a418 418 0 0 0 16.5 22 386 386 0 0 1 16.5-22" style="opacity:1"/><path fill="#7fd988" d="M338.5 248.5q.231 15.484 15.5 15a62 62 0 0 0 9.5-1 785 785 0 0 0 1-56h14v67q-19.374 4.537-39 1.5-16.296-8.834-15-27.5v-41h13a442 442 0 0 0 1 42" style="opacity:1"/><path fill="#498a4f" d="M338.5 248.5a442 442 0 0 1-1-42h-13v41a442 442 0 0 1-1-42h15z" style="opacity:1"/><path fill="#47884d" d="M378.5 206.5h-14a785 785 0 0 1-1 56v-57q7.793-.481 15 1" style="opacity:1"/><path fill="#113914" d="M223.5 229.5v3q-16.27.492-32-1 3.372-13.612 17.5-15 12.286 1.042 14.5 13" style="opacity:1"/><path fill="#64b26b" d="M223.5 229.5q1.401 1.602 1 4a290 290 0 0 1-34-1q.186-.91 1-1 15.73 1.492 32 1z" style="opacity:1"/><path fill="#2c6130" d="M238.5 244.5a550 550 0 0 0-47 3q-1.356-1.063-1-3z" style="opacity:1"/><path fill="#498a4f" d="M168.5 273.5q.814.09 1 1-8.23 1.972-16 0 7.792.481 15-1" style="opacity:1"/></svg>

<?xml version="1.0" encoding="UTF-8"?>
<!DOCTYPE svg PUBLIC "-//W3C//DTD SVG 1.1//EN" "http://www.w3.org/Graphics/SVG/1.1/DTD/svg11.dtd">
<svg xmlns="http://www.w3.org/2000/svg" version="1.1" width="483px" height="483px" style="shape-rendering:geometricPrecision; text-rendering:geometricPrecision; image-rendering:optimizeQuality; fill-rule:evenodd; clip-rule:evenodd" xmlns:xlink="http://www.w3.org/1999/xlink">
<g><path style="opacity:0.801" fill="#7bd484" d="M 219.5,-0.5 C 233.833,-0.5 248.167,-0.5 262.5,-0.5C 358.222,12.0993 425.722,62.4326 465,150.5C 475.662,177.979 481.495,206.313 482.5,235.5C 482.5,239.167 482.5,242.833 482.5,246.5C 476.196,343.27 430.196,414.103 344.5,459C 313.605,473.308 281.271,481.141 247.5,482.5C 242.833,482.5 238.167,482.5 233.5,482.5C 138.883,476.291 69.0495,431.624 24,348.5C 10.8308,321.142 2.66415,292.475 -0.5,262.5C -0.5,247.833 -0.5,233.167 -0.5,218.5C 11.3497,125.829 59.3497,59.3293 143.5,19C 167.999,8.70947 193.332,2.20947 219.5,-0.5 Z"/></g>
<g><path style="opacity:1" fill="#103713" d="M 226.5,1.5 C 320.743,0.0296203 393.576,38.363 445,116.5C 490.998,199.127 490.998,281.794 445,364.5C 401.12,432.632 338.62,470.799 257.5,479C 169.556,482.271 99.0557,449.105 46,379.5C -3.79523,304.332 -11.4619,224.999 23,141.5C 65.0444,57.546 132.878,10.8793 226.5,1.5 Z"/></g>
<g><path style="opacity:1" fill="#7dd786" d="M 221.5,19.5 C 319.443,16.4189 391.943,57.4189 439,142.5C 473.445,219.202 468.445,293.202 424,364.5C 373.756,433.865 305.589,466.032 219.5,461C 135.202,449.789 74.7023,405.955 38,329.5C 8.79748,257.408 14.1308,188.075 54,121.5C 94.2231,62.1559 150.056,28.1559 221.5,19.5 Z"/></g>
<g><path style="opacity:1" fill="#0f3612" d="M 222.5,28.5 C 310.941,25.4611 378.441,61.1277 425,135.5C 458.679,198.891 461.346,263.557 433,329.5C 398.793,398.351 343.627,438.851 267.5,451C 185.717,458.201 119.55,429.701 69,365.5C 26.9881,303.409 17.9881,236.742 42,165.5C 68.3056,101.192 114.472,58.3589 180.5,37C 194.504,33.6144 208.504,30.7811 222.5,28.5 Z"/></g>
<g><path style="opacity:1" fill="#7fd988" d="M 238.5,244.5 C 222.5,244.5 206.5,244.5 190.5,244.5C 190.263,245.791 190.596,246.791 191.5,247.5C 192.799,255.635 197.465,260.802 205.5,263C 214.706,264.097 223.706,263.263 232.5,260.5C 233.19,264.49 233.357,268.49 233,272.5C 218.573,278.332 204.406,277.832 190.5,271C 182.824,265.494 178.324,257.994 177,248.5C 173.447,228.772 180.613,214.605 198.5,206C 211.332,202.499 222.498,205.333 232,214.5C 237.273,223.796 239.44,233.796 238.5,244.5 Z"/></g>
<g><path style="opacity:1" fill="#7fd988" d="M 259.5,204.5 C 266.754,203.779 273.587,205.112 280,208.5C 294.464,200.859 304.798,204.526 311,219.5C 311.5,238.164 311.667,256.83 311.5,275.5C 307.167,275.5 302.833,275.5 298.5,275.5C 298.667,257.497 298.5,239.497 298,221.5C 295.325,216.436 291.658,215.436 287,218.5C 286.5,228.828 286.334,239.161 286.5,249.5C 282.167,249.5 277.833,249.5 273.5,249.5C 273.666,239.828 273.5,230.161 273,220.5C 272.5,218.667 271.333,217.5 269.5,217C 266.901,216.231 264.401,216.398 262,217.5C 261.5,236.83 261.333,256.164 261.5,275.5C 257.167,275.5 252.833,275.5 248.5,275.5C 248.5,252.833 248.5,230.167 248.5,207.5C 252.323,206.664 255.989,205.664 259.5,204.5 Z"/></g>
<g><path style="opacity:1" fill="#488a4e" d="M 152.5,206.5 C 157.348,205.186 162.348,205.186 167.5,206.5C 167.376,207.107 167.043,207.44 166.5,207.5C 162.03,206.514 157.363,206.181 152.5,206.5 Z"/></g>
<g><path style="opacity:1" fill="#7dd786" d="M 152.5,206.5 C 157.363,206.181 162.03,206.514 166.5,207.5C 159.051,218.122 151.385,228.622 143.5,239C 153.199,249.586 161.532,261.086 168.5,273.5C 163.695,274.487 158.695,274.821 153.5,274.5C 148.572,265.639 142.906,257.305 136.5,249.5C 129.047,256.957 122.713,265.29 117.5,274.5C 112.5,275.833 107.5,275.833 102.5,274.5C 109.669,261.998 118.003,250.331 127.5,239.5C 119.255,228.677 111.255,217.677 103.5,206.5C 108.833,205.167 114.167,205.167 119.5,206.5C 124.757,214.012 130.257,221.346 136,228.5C 141.277,220.92 146.777,213.586 152.5,206.5 Z"/></g>
<g><path style="opacity:1" fill="#7fd988" d="M 338.5,248.5 C 338.654,258.823 343.821,263.823 354,263.5C 357.217,263.409 360.384,263.075 363.5,262.5C 364.497,244.007 364.83,225.341 364.5,206.5C 369.167,206.5 373.833,206.5 378.5,206.5C 378.5,228.833 378.5,251.167 378.5,273.5C 365.584,276.525 352.584,277.025 339.5,275C 328.636,269.11 323.636,259.944 324.5,247.5C 324.5,233.833 324.5,220.167 324.5,206.5C 328.833,206.5 333.167,206.5 337.5,206.5C 337.171,220.677 337.504,234.677 338.5,248.5 Z"/></g>
<g><path style="opacity:1" fill="#498a4f" d="M 338.5,248.5 C 337.504,234.677 337.171,220.677 337.5,206.5C 333.167,206.5 328.833,206.5 324.5,206.5C 324.5,220.167 324.5,233.833 324.5,247.5C 323.504,233.677 323.171,219.677 323.5,205.5C 328.5,205.5 333.5,205.5 338.5,205.5C 338.5,219.833 338.5,234.167 338.5,248.5 Z"/></g>
<g><path style="opacity:1" fill="#47884d" d="M 378.5,206.5 C 373.833,206.5 369.167,206.5 364.5,206.5C 364.83,225.341 364.497,244.007 363.5,262.5C 363.5,243.5 363.5,224.5 363.5,205.5C 368.695,205.179 373.695,205.513 378.5,206.5 Z"/></g>
<g><path style="opacity:1" fill="#113914" d="M 223.5,229.5 C 223.5,230.5 223.5,231.5 223.5,232.5C 212.654,232.828 201.987,232.494 191.5,231.5C 193.748,222.425 199.581,217.425 209,216.5C 217.191,217.195 222.024,221.528 223.5,229.5 Z"/></g>
<g><path style="opacity:1" fill="#64b26b" d="M 223.5,229.5 C 224.434,230.568 224.768,231.901 224.5,233.5C 213.147,233.832 201.814,233.499 190.5,232.5C 190.624,231.893 190.957,231.56 191.5,231.5C 201.987,232.494 212.654,232.828 223.5,232.5C 223.5,231.5 223.5,230.5 223.5,229.5 Z"/></g>
<g><path style="opacity:1" fill="#2c6130" d="M 238.5,244.5 C 222.64,244.838 206.973,245.838 191.5,247.5C 190.596,246.791 190.263,245.791 190.5,244.5C 206.5,244.5 222.5,244.5 238.5,244.5 Z"/></g>
<g><path style="opacity:1" fill="#498a4f" d="M 168.5,273.5 C 169.043,273.56 169.376,273.893 169.5,274.5C 164.014,275.815 158.68,275.815 153.5,274.5C 158.695,274.821 163.695,274.487 168.5,273.5 Z"/></g>
</svg>
